src/icons/pizza.svg

<?xml version="1.0" encoding="UTF-8"?>
<svg width="512px" height="512px" viewBox="0 0 512 512" version="1.1" xmlns="http://www.w3.org/2000/svg" xmlns:xlink="http://www.w3.org/1999/xlink">
    <!-- Generator: Sketch 62 (91390) - https://sketch.com -->
    <title>pizza</title>
    <desc>Created with Sketch.</desc>
    <g id="pizza" stroke="none" stroke-width="1" fill="none" fill-rule="evenodd">
        <path d="M382.4,103.500845 C343.6,86.3008451 301.2,77.6008451 256.4,77.6999928 C211.5,77.6999928 166.2,87.0008451 130.4,103.100845 C123.7,106.100845 117.7,111.200845 121.9,120.800845 L256.4,421.300845 L390.6,121.400845 C393.1,115.100845 391.2,107.400845 382.4,103.500845 Z M198.2,159.500845 C182.1,159.500845 169.1,146.500845 169.1,130.400845 C169.1,114.300845 182.1,101.300845 198.2,101.300845 C214.3,101.300845 227.3,114.300845 227.3,130.400845 C227.3,146.500845 214.2,159.500845 198.2,159.500845 Z M256.3,293.100845 C240.2,293.100845 227.2,280.100845 227.2,264.000845 C227.2,247.900845 240.2,234.900845 256.3,234.900845 C272.4,234.900845 285.4,247.900845 285.4,264.000845 C285.4,280.100845 272.4,293.100845 256.3,293.100845 Z M314.5,188.600845 C298.4,188.600845 285.4,175.600845 285.4,159.500845 C285.4,143.400845 298.4,130.400845 314.5,130.400845 C330.6,130.400845 343.6,143.400845 343.6,159.500845 C343.6,175.600845 330.6,188.600845 314.5,188.600845 Z" id="Shape" fill="#000000" fill-rule="nonzero"></path>
        <path d="M406.7,70.9 C363.3,52.2 309.6,40 256,40 C202.4,40 149.7,51 105.3,70.4 C101.4,72.1 96.1,75.5 96.1,82.9 C96.1,85.2 96.9,87.4 96.9,87.4 L104.2,104.8 C106.5,109.2 111.4,112.2 116.7,112.2 C118.2,112.2 120.3,111.9 122.7,110.9 C163.5,93.7 208.6,84 256,84 C303.4,84 352,94.6 389.3,110.9 C392.3,112.2 394,112.2 395.4,112.2 C400.9,112.2 405.5,109.2 407.9,104.9 L415.2,87.3 C415.7,85.9 416.1,84.3 416.1,83 C416,76.4 412,73.2 406.7,70.9 L406.7,70.9 Z" id="Path" fill="#000000" fill-rule="nonzero"></path>
    </g>
</svg>

<svg xmlns="http://www.w3.org/2000/svg" width="512" height="512" viewBox="0 0 512 512">
    <path d="M382.4 103.5c-38.8-17.2-81.2-25.9-126-25.8-44.9 0-90.2 9.3-126 25.4-6.7 3-12.7 8.1-8.5 17.7l134.5 300.5 134.2-299.9c2.5-6.3.6-14-8.2-17.9zm-184.2 56c-16.1 0-29.1-13-29.1-29.1s13-29.1 29.1-29.1 29.1 13 29.1 29.1-13.1 29.1-29.1 29.1zm58.1 133.6c-16.1 0-29.1-13-29.1-29.1s13-29.1 29.1-29.1 29.1 13 29.1 29.1-13 29.1-29.1 29.1zm58.2-104.5c-16.1 0-29.1-13-29.1-29.1s13-29.1 29.1-29.1 29.1 13 29.1 29.1-13 29.1-29.1 29.1z"/>
    <path d="M406.7 70.9C363.3 52.2 309.6 40 256 40c-53.6 0-106.3 11-150.7 30.4-3.9 1.7-9.2 5.1-9.2 12.5 0 2.3.8 4.5.8 4.5l7.3 17.4c2.3 4.4 7.2 7.4 12.5 7.4 1.5 0 3.6-.3 6-1.3C163.5 93.7 208.6 84 256 84c47.4 0 96 10.6 133.3 26.9 3 1.3 4.7 1.3 6.1 1.3 5.5 0 10.1-3 12.5-7.3l7.3-17.6c.5-1.4.9-3 .9-4.3-.1-6.6-4.1-9.8-9.4-12.1z"/>
</svg>
